public/images/icons/icn_vote-hand.svg

<svg width="34" height="16" viewBox="0 0 34 16" fill="none" xmlns="http://www.w3.org/2000/svg">
<path fill-rule="evenodd" clip-rule="evenodd" d="M19.2962 1.79914C18.5205 1.3791 17.5993 1.32129 16.7771 1.64104L10.0289 4.26534H7.70629V10.7308H11.5386C11.8931 10.7308 12.2445 10.6636 12.5741 10.5329L16.0263 9.1634H19.2532C20.5606 9.1634 21.6475 8.21926 21.8693 6.9756H14.7268C14.3301 6.9756 14.0085 6.65397 14.0085 6.25722C14.0085 5.86046 14.3301 5.53883 14.7268 5.53883H17.6983V4.06941C17.6983 3.38412 18.2539 2.82857 18.9392 2.82857H21.1975L19.2962 1.79914ZM24.2152 2.82857L19.9803 0.535682C18.8335 -0.0852438 17.4717 -0.170707 16.2563 0.301966L9.75932 2.82857H7.70629V2.63265C7.70629 1.83915 7.06302 1.19588 6.26952 1.19588H1.43677C0.643262 1.19588 0 1.83915 0 2.63265V12.8533C0 13.6468 0.643261 14.29 1.43677 14.29H6.26952C7.06302 14.29 7.70629 13.6468 7.70629 12.8533V12.1675H11.5386C12.0745 12.1675 12.6057 12.066 13.1039 11.8684L16.3009 10.6002H17.6983V16H33.3721V4.06941C33.3721 3.38412 32.8166 2.82857 32.1313 2.82857H24.2152ZM19.1351 10.6002V14.5632H31.9354V4.26534H19.1351V5.53883H22.3803C22.9144 5.53883 23.3474 5.97183 23.3474 6.50596C23.3474 8.76713 21.5144 10.6002 19.2532 10.6002H19.1351ZM6.26952 2.63265H1.43677V12.8533H6.26952V2.63265Z" fill="black"/>
</svg>

<svg fill="none" viewBox="0 0 34 16"><path fill="#000" fill-rule="evenodd" d="M19.296 1.8a3.004 3.004 0 00-2.519-.159L10.03 4.265H7.706v6.466h3.833a2.81 2.81 0 001.035-.198l3.452-1.37h3.227a2.658 2.658 0 002.616-2.187h-7.142a.718.718 0 010-1.437h2.971v-1.47c0-.685.556-1.24 1.241-1.24h2.259l-1.902-1.03zm4.92 1.029L19.98.536a4.44 4.44 0 00-3.724-.234L9.76 2.829H7.706v-.196c0-.794-.643-1.437-1.436-1.437H1.437C.643 1.196 0 1.839 0 2.633v10.22c0 .794.643 1.437 1.437 1.437H6.27c.793 0 1.436-.643 1.436-1.437v-.685h3.833c.536 0 1.067-.102 1.565-.3L16.3 10.6h1.397V16h15.674V4.07a1.24 1.24 0 00-1.24-1.241h-7.917zm-5.08 7.771v3.963h12.8V4.265h-12.8V5.54h3.244c.534 0 .967.433.967.967a4.094 4.094 0 01-4.094 4.094h-.118zM6.27 2.633H1.437v10.22H6.27V2.633z" clip-rule="evenodd"/></svg>
